X: 21
T: Humours Of Ennistymon, The
Z: Sean Perry
S: https://thesession.org/tunes/228#setting50910
R: jig
M: 6/8
L: 1/8
K: Gmaj
A|:~B3 GBd|~c3 ABc|~B3 GBd|cAG FGA|
~B3 GBd|~c3 ABc|ded cAF|1 AGF G2A:|2 AGF G2e||
|:~f3 fed|cAG FGA|Ggg gfg|afd d2e|
~f3 fed|cBG FGA|~B3 cAF|1 AGF G2 e:|2 AGF GBd||
|:gdB gdB|ecA ecA|~B3 GBd|cBA FGA|
gdB gdB|ecA ecA|~B3 GBd|1cAF GBd:|2 cAF G3||

